X: 57
T: Georgia horseshoe
B: canberra pickers and fiddlers
B: old time tunes update
B: tunes
M:2/4
L:1/8
R: Reel
Q: 1/4=100
K:A
V:1 
{E}A2- A/F/-A|A/B/c/A/ B/c/d/B/|A<G A/B/c/c/|e/f/e/c/ B/A/G/E/|B<A {E}A2|
A/B/c/A/ B/c/d/B/ |A<G A/B/c/c/|e/f/e/c/ B/A/G/E/|B<A [A,E][A,E]|
[A,E][A,E] (B/c/)d/B/|A<G (A/B/)c/c/|e/f/e/c/ B/A/G/E/|B<A [A,E][A,E]|
[A,E][A,E] (B/c/)d/B/|A<G (A/B/)c/c/|e/f/e/c/ B/A/G/E/|B<A a>b|
ae/f/ =g/a/b/a/|=g<e {e}a>b|ac/A/ B/A/c/A/|B<A {c}e2|
E2 {c}e>c|A<G A/B/c/c/|e/f/e/c/ B/A/G/E/|B<A {c}e2|
A,2 {c}e>c|A<G A/B/A/B/|e/f/e/c/ B/A/G/E/|B/A/A/G/ E/A/A/B/|
A/B/c/A/ B/c/d/B/|A<G A/B/A/c/|e/f/e/c/ B/A/G/E/|B/A/G/E/ AA!D.S.!||
% abcbook-tune_id 67a7d9ec89ce1a968992b329
% abcbook-tune_composer_id 
% abcbook-link-0 https://www.youtube.com/watch?v=28jBaEMmBPc
% abcbook-link-title-0 Georgia Horseshoe | Rafe Stefanini &amp; Bruce Molsky
% abcbook-boost 0
% abcbook-difficulty 0
% abcbook-tags old time tunes
% abcbook-tablature 
% abcbook-transpose 
% abcbook-tuning AEAE
% abcbook-lastupdated 1739172367421
% abcbook-src-url 
% abcbook-soundfonts 
% abcbook-repeats 1


